azure-icons/command-1052-Publish.svg

<svg xmlns="http://www.w3.org/2000/svg" viewBox="0 0 16 14"><path d="M14.2 4.9l-.7-.8-.7.8L11 6.6l.7.8L13 6.1V7a4.5 4.5 0 01-.4 2H9.9a12.7 12.7 0 00.1-2 10.9 10.9 0 00-1.3-5.7 5.2 5.2 0 013 2l.7-.7A6.9 6.9 0 007 0a7 7 0 00-7 7 7 7 0 007 7 7 7 0 007-7v-.9l1.3 1.3.7-.8zM7 13c-.5 0-1.2-1.1-1.7-3h3.4c-.5 1.9-1.2 3-1.7 3zM5.1 9c0-.6-.1-1.3-.1-2s.1-1.4.1-2h3.8c0 .6.1 1.3.1 2s-.1 1.4-.1 2zm3.6-5H5.3C5.8 2.1 6.5 1 7 1s1.2 1.1 1.7 3zM5.3 1.3a8.5 8.5 0 00-1 2.7H1.8a5.9 5.9 0 013.5-2.7zM1 7a4.5 4.5 0 01.4-2h2.7A12.7 12.7 0 004 7a12.7 12.7 0 00.1 2H1.4A4.5 4.5 0 011 7zm.8 3h2.5a8.5 8.5 0 001 2.7A5.9 5.9 0 011.8 10zm6.9 2.7a8.5 8.5 0 001-2.7h2.5a5.9 5.9 0 01-3.5 2.7z"/></svg>

<svg xmlns="http://www.w3.org/2000/svg" viewBox="0 0 16 14"><title>Asset 63</title><path d="M14.2,4.9h0l-.7-.8h0l-.7.8h0L11,6.6l.7.8L13,6.1V7a4.5,4.5,0,0,1-.4,2H9.9A12.7,12.7,0,0,0,10,7,10.9,10.9,0,0,0,8.7,1.3a5.2,5.2,0,0,1,3,2l.7-.7A6.9,6.9,0,0,0,7,0,7,7,0,0,0,0,7a7,7,0,0,0,7,7,7,7,0,0,0,7-7V6.1l1.3,1.3.7-.8ZM7,13c-.5,0-1.2-1.1-1.7-3H8.7C8.2,11.9,7.5,13,7,13ZM5.1,9c0-.6-.1-1.3-.1-2s.1-1.4.1-2H8.9c0,.6.1,1.3.1,2s-.1,1.4-.1,2ZM8.7,4H5.3C5.8,2.1,6.5,1,7,1S8.2,2.1,8.7,4ZM5.3,1.3A8.5,8.5,0,0,0,4.3,4H1.8A5.9,5.9,0,0,1,5.3,1.3ZM1,7a4.5,4.5,0,0,1,.4-2H4.1A12.7,12.7,0,0,0,4,7a12.7,12.7,0,0,0,.1,2H1.4A4.5,4.5,0,0,1,1,7Zm.8,3H4.3a8.5,8.5,0,0,0,1,2.7A5.9,5.9,0,0,1,1.8,10Zm6.9,2.7a8.5,8.5,0,0,0,1-2.7h2.5A5.9,5.9,0,0,1,8.7,12.7Z"/></svg>
